; generated by Slic3r 1.3.0 on 2019-08-20 at 10:29:46

; external perimeters extrusion width = 0.46mm (0.00mm^3/s)
; perimeters extrusion width = 0.46mm (0.00mm^3/s)
; infill extrusion width = 0.46mm (0.00mm^3/s)
; solid infill extrusion width = 0.46mm (0.00mm^3/s)
; top infill extrusion width = 0.46mm (0.00mm^3/s)
; support material extrusion width = 0.46mm (7.12mm^3/s)

M107
M190 S110 ; set bed temperature and wait for it to be reached
M104 S230 ; set temperature
G28 ; home all axes
; Filament gcode

M109 S230 ; set temperature and wait for it to be reached
G21 ; set units to millimeters
G90 ; use absolute coordinates
M82 ; use absolute distances for extrusion
G92 E0
G1 E-4.00000 F2400.00000
G92 E0
G1 Z0.300 F7800.000
G1 X14.594 Y10.386 F7800.000
G1 E4.00000 F2400.00000
G1 F1080
G1 X14.802 Y10.125 E4.01684
G1 X15.691 Y9.129 E4.08413
G1 X16.701 Y8.226 E4.15244
G1 X16.962 Y8.018 E4.16926
G1 X19.218 Y6.600 E4.30366
G1 X19.519 Y6.455 E4.32050
G1 X22.035 Y5.575 E4.45488
G1 X22.360 Y5.500 E4.47171
G1 X25.009 Y5.202 E4.60610
G1 X25.342 Y5.202 E4.62292
G1 X26.568 Y5.265 E4.68480
G1 X112.673 Y14.179 E9.04975
G1 X116.771 Y15.372 E9.26493
G1 X120.771 Y17.372 E9.49044
G1 X123.612 Y19.357 E9.66520
G1 X134.750 Y29.863 E10.43724
G1 X135.737 Y30.982 E10.51249
G1 X136.751 Y32.289 E10.59590
G1 X137.825 Y33.939 E10.69518
G1 X138.610 Y35.395 E10.77859
G1 X139.708 Y38.272 E10.93386
G1 X140.035 Y41.042 E11.07451
G1 X140.035 Y51.042 E11.57874
G1 X139.803 Y53.382 E11.69730
G1 X134.220 Y81.229 E13.12937
G1 X133.275 Y84.050 E13.27939
G1 X126.257 Y98.633 E14.09543
G1 X124.574 Y101.212 E14.25070
G1 X122.286 Y103.272 E14.40596
G1 X120.855 Y104.118 E14.48979
G1 X116.855 Y106.118 E14.71529
G1 X113.946 Y107.127 E14.87056
G1 X111.532 Y107.374 E14.99291
G1 X105.532 Y107.374 E15.29545
G1 X19.346 Y104.477 E19.64373
G1 X16.307 Y103.976 E19.79900
G1 X13.499 Y102.712 E19.95427
G1 X11.109 Y100.770 E20.10954
G1 X9.298 Y98.281 E20.26480
G1 X8.185 Y95.409 E20.42007
G1 X7.846 Y92.798 E20.55287
G1 X7.431 Y69.962 E21.70450
G1 X7.186 Y37.491 E23.34188
G1 X7.485 Y34.842 E23.47627
G1 X12.183 Y15.319 E24.48880
G1 X13.031 Y12.943 E24.61601
G1 X13.176 Y12.642 E24.63284
G1 X14.557 Y10.444 E24.76375
G1 X14.966 Y10.682 F7800.000
G1 F1080
G1 X15.174 Y10.421 E24.78059
G1 X16.028 Y9.466 E24.84519
G1 X16.997 Y8.598 E24.91081
G1 X17.258 Y8.390 E24.92764
G1 X19.425 Y7.028 E25.05666
G1 X19.726 Y6.883 E25.07350
G1 X22.141 Y6.038 E25.20251
G1 X22.466 Y5.964 E25.21934
G1 X25.009 Y5.678 E25.34836
G1 X25.342 Y5.678 E25.36518
G1 X26.519 Y5.738 E25.42459
G1 X112.624 Y14.652 E29.78953
G1 X116.558 Y15.797 E29.99612
G1 X120.558 Y17.797 E30.22162
G1 X123.286 Y19.703 E30.38940
G1 X134.413 Y30.199 E31.16073
G1 X135.361 Y31.274 E31.23298
G1 X136.375 Y32.581 E31.31639
G1 X137.406 Y34.165 E31.41170
G1 X138.191 Y35.621 E31.49512
G1 X139.260 Y38.442 E31.64724
G1 X139.559 Y41.042 E31.77920
G1 X139.559 Y51.042 E32.28344
G1 X139.336 Y53.288 E32.39726
G1 X133.753 Y81.135 E33.82932
G1 X132.846 Y83.844 E33.97335
G1 X125.829 Y98.427 E34.78939
G1 X124.173 Y100.949 E34.94151
G1 X120.642 Y103.692 E35.16698
G1 X116.642 Y105.692 E35.39249
G1 X113.789 Y106.673 E35.54461
G1 X111.532 Y106.899 E35.65900
G1 X105.147 Y106.892 E35.98095
G1 X19.362 Y104.001 E40.30901
G1 X16.386 Y103.502 E40.46114
G1 X13.645 Y102.242 E40.61326
G1 X11.329 Y100.309 E40.76538
G1 X9.600 Y97.837 E40.91750
G1 X8.578 Y94.998 E41.06962
G1 X8.322 Y92.789 E41.18177
G1 X7.906 Y69.959 E42.33315
G1 X7.662 Y37.491 E43.97035
G1 X7.948 Y34.948 E44.09937
G1 X12.646 Y15.431 E45.11161
G1 X13.460 Y13.149 E45.23374
G1 X13.604 Y12.849 E45.25057
G1 X14.929 Y10.741 E45.37611
G1 X15.338 Y10.979 F7800.000
G1 F1080
G1 X15.546 Y10.718 E45.39294
G1 X16.364 Y9.802 E45.45486
G1 X17.294 Y8.970 E45.51779
G1 X17.555 Y8.762 E45.53461
G1 X19.631 Y7.457 E45.65827
G1 X19.932 Y7.312 E45.67511
G1 X22.246 Y6.502 E45.79875
G1 X22.572 Y6.428 E45.81557
G1 X25.009 Y6.153 E45.93922
G1 X25.342 Y6.153 E45.95605
G1 X26.470 Y6.212 E46.01298
G1 X112.575 Y15.125 E50.37793
G1 X116.345 Y16.223 E50.57592
G1 X120.345 Y18.223 E50.80142
G1 X122.959 Y20.049 E50.96221
G1 X134.077 Y30.535 E51.73284
G1 X134.985 Y31.565 E51.80207
G1 X135.999 Y32.872 E51.88549
G1 X136.988 Y34.390 E51.97683
G1 X137.773 Y35.847 E52.06025
G1 X138.810 Y38.611 E52.20915
G1 X139.084 Y41.042 E52.33250
G1 X139.084 Y51.042 E52.83673
G1 X138.870 Y53.195 E52.94582
G1 X133.287 Y81.042 E54.37788
G1 X132.418 Y83.637 E54.51592
G1 X125.400 Y98.220 E55.33195
G1 X123.773 Y100.684 E55.48086
G1 X120.430 Y103.267 E55.69386
G1 X116.430 Y105.267 E55.91937
G1 X113.634 Y106.219 E56.06827
G1 X111.532 Y106.423 E56.17477
G1 X105.163 Y106.417 E56.49591
G1 X19.378 Y103.526 E60.82398
G1 X16.467 Y103.029 E60.97289
G1 X13.794 Y101.773 E61.12180
G1 X11.554 Y99.848 E61.27070
G1 X9.910 Y97.395 E61.41961
G1 X8.982 Y94.592 E61.56852
G1 X8.797 Y92.780 E61.66034
G1 X8.382 Y69.955 E62.81146
G1 X8.137 Y37.491 E64.44848
G1 X8.412 Y35.054 E64.57213
G1 X13.108 Y15.542 E65.58408
G1 X13.888 Y13.356 E65.70113
G1 X14.033 Y13.055 E65.71795
G1 X15.301 Y11.037 E65.83812
G1 X15.709 Y11.275 F7800.000
G1 F1080
G1 X15.918 Y11.014 E65.85496
G1 X16.700 Y10.138 E65.91418
G1 X17.590 Y9.341 E65.97443
G1 X17.851 Y9.133 E65.99125
G1 X19.837 Y7.885 E66.10953
G1 X20.138 Y7.740 E66.12637
G1 X22.352 Y6.966 E66.24464
G1 X22.678 Y6.892 E66.26147
G1 X25.009 Y6.629 E66.37975
G1 X25.342 Y6.629 E66.39657
G1 X26.421 Y6.685 E66.45103
G1 X112.526 Y15.598 E70.81598
G1 X116.132 Y16.648 E71.00537
G1 X120.132 Y18.648 E71.23087
G1 X122.633 Y20.395 E71.38468
G1 X133.741 Y30.872 E72.15460
G1 X134.609 Y31.857 E72.22083
G1 X135.624 Y33.164 E72.30424
G1 X136.569 Y34.616 E72.39162
G1 X137.354 Y36.072 E72.47503
G1 X138.361 Y38.779 E72.62066
G1 X138.608 Y41.042 E72.73545
G1 X138.608 Y51.042 E73.23969
G1 X138.404 Y53.101 E73.34403
G1 X132.821 Y80.948 E74.77610
G1 X131.989 Y83.431 E74.90814
G1 X124.972 Y98.014 E75.72417
G1 X123.373 Y100.419 E75.86980
G1 X120.217 Y102.841 E76.07040
G1 X116.217 Y104.841 E76.29590
G1 X113.480 Y105.765 E76.44152
G1 X111.532 Y105.947 E76.54020
G1 X105.179 Y105.941 E76.86053
G1 X19.394 Y103.051 E81.18860
G1 X16.548 Y102.556 E81.33422
G1 X13.946 Y101.304 E81.47984
G1 X11.785 Y99.389 E81.62546
G1 X10.228 Y96.956 E81.77109
G1 X9.273 Y92.772 E81.98750
G1 X8.858 Y69.951 E83.13838
G1 X8.613 Y37.491 E84.77521
G1 X8.876 Y35.160 E84.89349
G1 X13.571 Y15.653 E85.90515
G1 X14.317 Y13.562 E86.01711
G1 X14.461 Y13.261 E86.03394
G1 X15.673 Y11.334 E86.14874
G1 F6240
G1 X15.907 Y11.027 E86.00784
G1 F6240
G1 X15.907 Y11.027 E86.00776
G1 F6240
G1 X15.918 Y11.014 E86.00167
G1 F6240
G1 X16.700 Y10.138 E85.57249
G1 F6240
G1 X16.700 Y10.138 E85.57249
G1 F6240
G1 X16.701 Y10.138 E85.57218
G1 F6240
G1 X16.713 Y10.126 E85.56597
G1 F6240
G1 X16.714 Y10.125 E85.56538
G1 F6240
G1 X16.716 Y10.122 E85.56429
G1 F6240
G1 X17.590 Y9.341 E85.13595
G1 F6240
G1 X17.851 Y9.133 E85.01404
G1 F6240
G1 X19.837 Y7.885 E84.15693
G1 F6240
G1 X20.123 Y7.748 E84.04112
G1 F6240
G1 X20.123 Y7.748 E84.04099
G1 F6240
G1 X20.138 Y7.740 E84.03490
G1 F6240
G1 X22.352 Y6.966 E83.17786
G1 F6240
G1 X22.678 Y6.892 E83.05595
G1 F6240
G1 X24.601 Y6.675 E82.34874
G1 E82.14874 F2400.00000
G92 E0
G1 X24.175 Y24.246 F7800.000
G1 E4.00000 F2400.00000
G1 F1440
G1 X24.340 Y24.323 E4.00917
G1 X24.499 Y24.450 E4.01945
G1 X36.898 Y36.848 E4.90357
G1 X60.219 Y36.848 E6.07950
G1 X60.219 Y38.357 E6.15558
G1 X36.273 Y38.357 E7.36301
G1 X23.433 Y25.517 E8.27867
G1 X23.303 Y25.354 E8.28915
G1 X23.231 Y25.205 E8.29750
G1 X23.194 Y25.044 E8.30585
G1 X23.194 Y24.878 E8.31420
G1 X23.231 Y24.716 E8.32255
G1 X23.302 Y24.569 E8.33078
G1 X23.419 Y24.425 E8.34014
G1 X23.550 Y24.320 E8.34861
G1 X23.699 Y24.248 E8.35696
G1 X23.861 Y24.212 E8.36531
G1 X24.108 Y24.230 E8.37783
G1 F6240
G1 X24.340 Y24.323 E8.28657
G1 F6240
G1 X24.499 Y24.450 E8.21212
G1 F6240
G1 X31.533 Y31.483 E4.57783
G1 E4.37783 F2400.00000
G92 E0
G1 X60.694 Y36.373 F7800.000
G1 E4.00000 F2400.00000
G1 F1440
G1 X60.694 Y38.833 E4.12404
G1 X36.076 Y38.833 E5.36539
G1 X23.077 Y25.834 E6.29233
G1 X22.898 Y25.609 E6.30685
G1 X22.779 Y25.363 E6.32061
G1 X22.719 Y25.097 E6.33436
G1 X22.719 Y24.824 E6.34812
G1 X22.779 Y24.558 E6.36188
G1 X22.897 Y24.313 E6.37559
G1 X23.081 Y24.086 E6.39035
G1 X23.295 Y23.915 E6.40415
G1 X23.541 Y23.797 E6.41790
G1 X23.807 Y23.736 E6.43166
G1 X24.080 Y23.736 E6.44542
G1 X24.331 Y23.793 E6.45840
G1 X24.593 Y23.916 E6.47298
G1 X24.817 Y24.095 E6.48743
G1 X37.095 Y36.373 E7.36297
G1 X60.626 Y36.373 E8.54947
G1 X60.422 Y36.743 F7800.000
G1 X59.693 Y37.932 F7800.000
G1 F1439.93
G1 X59.794 Y37.831 E8.55668
G1 X59.794 Y37.273 E8.58479
G1 X59.679 Y37.273 E8.59060
G1 X59.020 Y37.932 E8.63756
G1 X58.347 Y37.932 E8.67148
G1 X59.006 Y37.273 E8.71843
G1 X58.333 Y37.273 E8.75235
G1 X57.675 Y37.932 E8.79931
G1 X57.002 Y37.932 E8.83323
G1 X57.661 Y37.273 E8.88019
G1 X56.988 Y37.273 E8.91411
G1 X56.329 Y37.932 E8.96107
G1 X55.657 Y37.932 E8.99499
G1 X56.315 Y37.273 E9.04196
G1 X55.643 Y37.273 E9.07588
G1 X54.984 Y37.932 E9.12284
G1 X54.311 Y37.932 E9.15676
G1 X54.970 Y37.273 E9.20372
G1 X54.297 Y37.273 E9.23764
G1 X53.639 Y37.932 E9.28460
G1 X52.966 Y37.932 E9.31852
G1 X53.625 Y37.273 E9.36549
G1 X52.952 Y37.273 E9.39941
G1 X52.293 Y37.932 E9.44637
G1 X51.621 Y37.932 E9.48029
G1 X52.279 Y37.273 E9.52726
G1 X51.607 Y37.273 E9.56118
G1 X50.948 Y37.932 E9.60814
G1 X50.275 Y37.932 E9.64206
G1 X50.934 Y37.273 E9.68903
G1 X50.261 Y37.273 E9.72295
G1 X49.603 Y37.932 E9.76991
G1 X48.930 Y37.932 E9.80383
G1 X49.589 Y37.273 E9.85080
G1 X48.916 Y37.273 E9.88472
G1 X48.257 Y37.932 E9.93169
G1 X47.585 Y37.932 E9.96561
G1 X48.243 Y37.273 E10.01258
G1 X47.571 Y37.273 E10.04650
G1 X46.912 Y37.932 E10.09347
G1 X46.239 Y37.932 E10.12739
G1 X46.898 Y37.273 E10.17436
G1 X46.225 Y37.273 E10.20828
G1 X45.567 Y37.932 E10.25525
G1 X44.894 Y37.932 E10.28917
G1 X45.553 Y37.273 E10.33614
G1 X44.880 Y37.273 E10.37006
G1 X44.221 Y37.932 E10.41703
G1 X43.549 Y37.932 E10.45095
G1 X44.207 Y37.273 E10.49792
G1 X43.535 Y37.273 E10.53184
G1 X42.876 Y37.932 E10.57881
G1 X42.203 Y37.932 E10.61273
G1 X42.862 Y37.273 E10.65971
G1 X42.189 Y37.273 E10.69363
G1 X41.531 Y37.932 E10.74060
G1 X40.858 Y37.932 E10.77452
G1 X41.517 Y37.273 E10.82150
G1 X40.844 Y37.273 E10.85542
G1 X40.185 Y37.932 E10.90239
G1 X39.513 Y37.932 E10.93631
G1 X40.171 Y37.273 E10.98329
G1 X39.499 Y37.273 E11.01721
G1 X38.840 Y37.932 E11.06418
G1 X38.167 Y37.932 E11.09810
G1 X38.826 Y37.273 E11.14508
G1 X38.153 Y37.273 E11.17900
G1 X37.495 Y37.932 E11.22598
G1 X36.822 Y37.932 E11.25990
G1 X37.481 Y37.273 E11.30688
G1 X36.808 Y37.273 E11.34080
G1 X36.285 Y37.797 E11.37814
G1 X35.948 Y37.461 E11.40212
G1 X36.443 Y36.965 E11.43743
G1 X36.107 Y36.629 E11.46142
G1 X35.612 Y37.124 E11.49673
G1 X35.276 Y36.788 E11.52071
G1 X35.771 Y36.293 E11.55602
G1 X35.434 Y35.956 E11.58001
G1 X34.939 Y36.452 E11.61532
G1 X34.603 Y36.115 E11.63930
G1 X35.098 Y35.620 E11.67461
G1 X34.762 Y35.284 E11.69860
G1 X34.267 Y35.779 E11.73391
G1 X33.930 Y35.443 E11.75789
G1 X34.425 Y34.947 E11.79320
G1 X34.089 Y34.611 E11.81719
G1 X33.594 Y35.106 E11.85250
G1 X33.258 Y34.770 E11.87648
G1 X33.753 Y34.275 E11.91179
G1 X33.416 Y33.938 E11.93578
G1 X32.921 Y34.434 E11.97109
G1 X32.585 Y34.097 E11.99507
G1 X33.080 Y33.602 E12.03038
G1 X32.744 Y33.266 E12.05437
G1 X32.249 Y33.761 E12.08968
G1 X31.912 Y33.425 E12.11366
G1 X32.407 Y32.930 E12.14897
G1 X32.071 Y32.593 E12.17296
G1 X31.576 Y33.088 E12.20827
G1 X31.240 Y32.752 E12.23225
G1 X31.735 Y32.257 E12.26757
G1 X31.398 Y31.921 E12.29155
G1 X30.903 Y32.416 E12.32686
G1 X30.567 Y32.079 E12.35085
G1 X31.062 Y31.584 E12.38616
G1 X30.726 Y31.248 E12.41014
G1 X30.231 Y31.743 E12.44545
G1 X29.894 Y31.407 E12.46944
G1 X30.389 Y30.912 E12.50475
G1 X30.053 Y30.575 E12.52873
G1 X29.558 Y31.070 E12.56404
G1 X29.222 Y30.734 E12.58803
G1 X29.717 Y30.239 E12.62334
G1 X29.380 Y29.903 E12.64732
G1 X28.885 Y30.398 E12.68263
G1 X28.549 Y30.061 E12.70662
G1 X29.044 Y29.566 E12.74193
G1 X28.708 Y29.230 E12.76591
G1 X28.213 Y29.725 E12.80122
G1 X27.876 Y29.389 E12.82521
G1 X28.371 Y28.894 E12.86052
G1 X28.035 Y28.557 E12.88450
G1 X27.540 Y29.052 E12.91981
G1 X27.204 Y28.716 E12.94380
G1 X27.699 Y28.221 E12.97911
G1 X27.362 Y27.885 E13.00309
G1 X26.867 Y28.380 E13.03840
G1 X26.531 Y28.043 E13.06239
G1 X27.026 Y27.548 E13.09770
G1 X26.690 Y27.212 E13.12168
G1 X26.195 Y27.707 E13.15699
G1 X25.858 Y27.371 E13.18098
G1 X26.353 Y26.876 E13.21629
G1 X26.017 Y26.539 E13.24027
G1 X25.522 Y27.034 E13.27558
G1 X25.186 Y26.698 E13.29957
G1 X25.681 Y26.203 E13.33488
G1 X25.344 Y25.867 E13.35886
G1 X24.849 Y26.362 E13.39417
G1 X24.513 Y26.025 E13.41816
G1 X25.008 Y25.530 E13.45347
G1 X24.672 Y25.194 E13.47745
G1 X24.177 Y25.689 E13.51276
G1 X23.840 Y25.353 E13.53675
G1 X24.335 Y24.858 E13.57206
G1 X24.138 Y24.679 E13.58548
G1 X24.023 Y24.637 E13.59165
G1 X23.965 Y24.637 E13.59460
G1 X23.855 Y24.675 E13.60046
G1 X23.706 Y24.814 E13.61072
G1 F6240
G1 X23.855 Y24.675 E13.53639
G1 F6240
G1 X23.965 Y24.637 E13.49394
G1 F6240
G1 X24.023 Y24.637 E13.47257
G1 F6240
G1 X24.138 Y24.679 E13.42786
G1 F6240
G1 X24.335 Y24.858 E13.33059
G1 F6240
G1 X23.840 Y25.353 E13.07473
G1 F6240
G1 X24.177 Y25.689 E12.90094
G1 F6240
G1 X24.672 Y25.194 E12.64508
G1 F6240
G1 X25.008 Y25.530 E12.47128
G1 F6240
G1 X24.513 Y26.025 E12.21542
G1 F6240
G1 X24.849 Y26.362 E12.04163
G1 F6240
G1 X25.344 Y25.867 E11.78577
G1 F6240
G1 X25.681 Y26.203 E11.61198
G1 F6240
G1 X25.186 Y26.698 E11.35612
G1 F6240
G1 X25.522 Y27.034 E11.18233
G1 F6240
G1 X26.017 Y26.539 E10.92647
G1 F6240
G1 X26.353 Y26.876 E10.75268
G1 F6240
G1 X25.858 Y27.371 E10.49682
G1 F6240
G1 X26.195 Y27.707 E10.32303
G1 F6240
G1 X26.690 Y27.212 E10.06717
G1 F6240
G1 X27.026 Y27.548 E9.89337
G1 F6240
G1 X26.866 Y27.708 E9.81072
G1 E9.61072 F2400.00000
G92 E0
G1 X61.451 Y30.487 F7800.000
G1 E4.00000 F2400.00000
G1 F1440
G1 X61.451 Y31.996 E4.07608
G1 X37.505 Y31.996 E5.28351
G1 X24.664 Y19.155 E6.19917
G1 X24.535 Y18.993 E6.20964
G1 X24.463 Y18.844 E6.21799
G1 X24.426 Y18.682 E6.22635
G1 X24.426 Y18.517 E6.23470
G1 X24.463 Y18.355 E6.24305
G1 X24.534 Y18.208 E6.25128
G1 X24.650 Y18.064 E6.26063
G1 X24.782 Y17.959 E6.26911
G1 X24.931 Y17.887 E6.27746
G1 X25.093 Y17.850 E6.28581
G1 X25.258 Y17.850 E6.29416
G1 X25.407 Y17.884 E6.30187
G1 X25.572 Y17.961 E6.31105
G1 X25.731 Y18.088 E6.32132
G1 X38.130 Y30.487 E7.20544
G1 X61.382 Y30.487 E8.37790
G1 X61.926 Y30.011 F7800.000
G1 F1440
G1 X61.926 Y32.471 E8.50194
G1 X37.308 Y32.471 E9.74329
G1 X24.309 Y19.473 E10.67023
G1 X24.130 Y19.248 E10.68475
G1 X24.011 Y19.002 E10.69851
G1 X23.951 Y18.736 E10.71226
G1 X23.951 Y18.463 E10.72602
G1 X24.011 Y18.197 E10.73978
G1 X24.129 Y17.952 E10.75349
G1 X24.313 Y17.724 E10.76825
G1 X24.527 Y17.554 E10.78205
G1 X24.773 Y17.435 E10.79580
G1 X25.039 Y17.375 E10.80956
G1 X25.312 Y17.375 E10.82331
G1 X25.563 Y17.432 E10.83630
G1 X25.825 Y17.555 E10.85088
G1 X26.049 Y17.733 E10.86533
G1 X38.327 Y30.011 E11.74087
G1 X61.857 Y30.011 E12.92737
G1 X61.654 Y30.382 F7800.000
G1 X60.925 Y31.570 F7800.000
G1 F1439.93
G1 X61.026 Y31.469 E12.93458
G1 X61.026 Y30.912 E12.96269
G1 X60.910 Y30.912 E12.96850
G1 X60.252 Y31.570 E13.01545
G1 X59.579 Y31.570 E13.04937
G1 X60.238 Y30.912 E13.09633
G1 X59.565 Y30.912 E13.13025
G1 X58.907 Y31.570 E13.17721
G1 X58.234 Y31.570 E13.21113
G1 X58.892 Y30.912 E13.25809
G1 X58.220 Y30.912 E13.29201
G1 X57.561 Y31.570 E13.33897
G1 X56.889 Y31.570 E13.37289
G1 X57.547 Y30.912 E13.41985
G1 X56.874 Y30.912 E13.45377
G1 X56.216 Y31.570 E13.50074
G1 X55.543 Y31.570 E13.53466
G1 X56.202 Y30.912 E13.58162
G1 X55.529 Y30.912 E13.61554
G1 X54.871 Y31.570 E13.66250
G1 X54.198 Y31.570 E13.69642
G1 X54.856 Y30.912 E13.74339
G1 X54.184 Y30.912 E13.77730
G1 X53.525 Y31.570 E13.82427
G1 X52.853 Y31.570 E13.85819
G1 X53.511 Y30.912 E13.90515
G1 X52.838 Y30.912 E13.93907
G1 X52.180 Y31.571 E13.98604
G1 X51.507 Y31.571 E14.01996
G1 X52.166 Y30.912 E14.06693
G1 X51.493 Y30.912 E14.10085
G1 X50.835 Y31.571 E14.14781
G1 X50.162 Y31.571 E14.18173
G1 X50.821 Y30.912 E14.22870
G1 X50.148 Y30.912 E14.26262
G1 X49.489 Y31.571 E14.30959
