; generated by Slic3r 1.3.0 on 2019-08-16 at 15:54:26

; external perimeters extrusion width = 0.46mm (0.00mm^3/s)
; perimeters extrusion width = 0.46mm (0.00mm^3/s)
; infill extrusion width = 0.46mm (0.00mm^3/s)
; solid infill extrusion width = 0.46mm (0.00mm^3/s)
; top infill extrusion width = 0.46mm (0.00mm^3/s)
; support material extrusion width = 0.46mm (7.12mm^3/s)

M107
M190 S110 ; set bed temperature and wait for it to be reached
M104 S230 ; set temperature
G28 ; home all axes
; Filament gcode

M109 S230 ; set temperature and wait for it to be reached
G21 ; set units to millimeters
G90 ; use absolute coordinates
M82 ; use absolute distances for extrusion
G92 E0
G1 E-4.00000 F2400.00000
G92 E0
G1 Z0.300 F7800.000
G1 X7.810 Y7.914 F7800.000
G1 E4.00000 F2400.00000
G1 F1080
G1 X10.992 Y4.732 E4.22691
G1 X13.433 Y2.855 E4.38217
G1 X16.274 Y1.666 E4.53744
G1 X19.409 Y1.246 E4.69693
G1 X165.240 Y1.246 E12.05026
G1 X168.293 Y1.645 E12.20553
G1 X171.142 Y2.813 E12.36080
G1 X173.656 Y4.732 E12.52029
G1 X180.020 Y11.096 E12.97410
G1 X181.898 Y13.537 E13.12937
G1 X183.086 Y16.378 E13.28464
G1 X183.506 Y19.513 E13.44412
G1 X183.506 Y132.724 E19.15264
G1 X183.108 Y135.777 E19.30791
G1 X181.940 Y138.626 E19.46318
G1 X180.020 Y141.140 E19.62267
G1 X173.656 Y147.504 E20.07648
G1 X171.215 Y149.382 E20.23175
G1 X168.375 Y150.570 E20.38702
G1 X165.240 Y150.990 E20.54650
G1 X19.409 Y150.990 E27.89984
G1 X16.355 Y150.592 E28.05511
G1 X13.506 Y149.424 E28.21038
G1 X10.992 Y147.504 E28.36986
G1 X4.628 Y141.140 E28.82368
G1 X2.751 Y138.699 E28.97895
G1 X1.563 Y135.859 E29.13422
G1 X1.142 Y132.724 E29.29370
G1 X1.142 Y19.513 E35.00222
G1 X1.541 Y16.459 E35.15749
G1 X2.709 Y13.610 E35.31276
G1 X4.628 Y11.096 E35.47224
G1 X7.762 Y7.963 E35.69567
G1 X8.147 Y8.251 F7800.000
G1 F1080
G1 X11.329 Y5.069 E35.92258
G1 X13.725 Y3.236 E36.07470
G1 X16.517 Y2.094 E36.22682
G1 X19.409 Y1.722 E36.37382
G1 X165.240 Y1.722 E43.72716
G1 X168.230 Y2.120 E43.87928
G1 X171.012 Y3.287 E44.03140
G1 X173.320 Y5.069 E44.17839
G1 X179.684 Y11.433 E44.63221
G1 X181.517 Y13.829 E44.78433
G1 X182.659 Y16.621 E44.93645
G1 X183.031 Y19.513 E45.08345
G1 X183.031 Y132.724 E50.79197
G1 X182.633 Y135.714 E50.94409
G1 X181.466 Y138.496 E51.09621
G1 X179.684 Y140.804 E51.24321
G1 X173.320 Y147.168 E51.69703
G1 X170.924 Y149.001 E51.84915
G1 X168.131 Y150.143 E52.00127
G1 X165.240 Y150.515 E52.14826
G1 X19.409 Y150.515 E59.50160
G1 X16.418 Y150.117 E59.65372
G1 X13.636 Y148.950 E59.80584
G1 X11.329 Y147.168 E59.95284
G1 X4.965 Y140.804 E60.40666
G1 X3.132 Y138.408 E60.55878
G1 X1.990 Y135.615 E60.71090
G1 X1.618 Y132.724 E60.85790
G1 X1.618 Y19.513 E66.56642
G1 X2.016 Y16.522 E66.71854
G1 X3.183 Y13.740 E66.87066
G1 X4.965 Y11.433 E67.01765
G1 X8.098 Y8.299 E67.24109
G1 X8.483 Y8.587 F7800.000
G1 F1080
G1 X11.665 Y5.405 E67.46800
G1 X14.016 Y3.617 E67.61691
G1 X16.759 Y2.523 E67.76581
G1 X19.409 Y2.197 E67.90045
G1 X165.240 Y2.198 E75.25379
G1 X168.166 Y2.596 E75.40269
G1 X170.880 Y3.761 E75.55160
G1 X172.984 Y5.405 E75.68624
G1 X179.348 Y11.769 E76.14005
G1 X181.135 Y14.120 E76.28896
G1 X182.230 Y16.863 E76.43787
G1 X182.555 Y19.513 E76.57250
G1 X182.555 Y132.724 E82.28102
G1 X182.157 Y135.650 E82.42993
G1 X180.991 Y138.364 E82.57884
G1 X179.348 Y140.468 E82.71347
G1 X172.984 Y146.832 E83.16729
G1 X170.633 Y148.619 E83.31620
G1 X167.890 Y149.714 E83.46511
G1 X165.240 Y150.039 E83.59974
G1 X19.409 Y150.039 E90.95307
G1 X16.483 Y149.641 E91.10198
G1 X13.769 Y148.475 E91.25089
G1 X11.665 Y146.832 E91.38552
G1 X5.301 Y140.468 E91.83934
G1 X3.513 Y138.117 E91.98825
G1 X2.419 Y135.374 E92.13716
G1 X2.094 Y132.724 E92.27179
G1 X2.094 Y19.513 E97.98031
G1 X2.492 Y16.587 E98.12922
G1 X3.657 Y13.873 E98.27813
G1 X5.301 Y11.769 E98.41276
G1 X8.434 Y8.636 E98.63619
G1 X8.819 Y8.923 F7800.000
G1 F1080
G1 X12.001 Y5.741 E98.86310
G1 X14.305 Y4.000 E99.00872
G1 X16.997 Y2.954 E99.15434
G1 X19.409 Y2.673 E99.27675
G1 X165.240 Y2.673 E106.63009
G1 X168.100 Y3.071 E106.77571
G1 X170.743 Y4.235 E106.92134
G1 X172.647 Y5.741 E107.04375
G1 X179.011 Y12.105 E107.49756
G1 X180.752 Y14.409 E107.64318
G1 X181.798 Y17.101 E107.78880
G1 X182.080 Y19.513 E107.91121
G1 X182.080 Y132.724 E113.61973
G1 X181.681 Y135.584 E113.76536
G1 X180.517 Y138.227 E113.91098
G1 X179.011 Y140.131 E114.03339
G1 X172.647 Y146.495 E114.48721
G1 X170.343 Y148.236 E114.63283
G1 X167.651 Y149.282 E114.77845
G1 X165.240 Y149.564 E114.90086
G1 X19.409 Y149.564 E122.25419
G1 X16.548 Y149.165 E122.39982
G1 X13.905 Y148.001 E122.54544
G1 X12.001 Y146.495 E122.66785
G1 X5.637 Y140.131 E123.12167
G1 X3.896 Y137.827 E123.26729
G1 X2.850 Y135.135 E123.41291
G1 X2.569 Y132.724 E123.53532
G1 X2.569 Y19.513 E129.24384
G1 X2.967 Y16.652 E129.38946
G1 X4.131 Y14.009 E129.53509
G1 X5.637 Y12.105 E129.65749
G1 X8.771 Y8.972 E129.88092
G1 F6240
G1 X8.819 Y8.923 E129.85567
G1 F6240
G1 X12.001 Y5.741 E128.21144
G1 F6240
G1 X14.305 Y4.000 E127.15622
G1 F6240
G1 X16.997 Y2.954 E126.10099
G1 F6240
G1 X17.052 Y2.948 E126.08092
G1 E125.88092 F2400.00000
G92 E0
G1 X61.539 Y48.983 F7800.000
G1 E4.00000 F2400.00000
G1 F1440
G1 X108.090 Y48.983 E6.34728
G1 X108.090 Y53.226 E6.56127
G1 X108.138 Y53.655 E6.58303
G1 X108.267 Y54.023 E6.60268
G1 X108.474 Y54.353 E6.62232
G1 X108.750 Y54.628 E6.64196
G1 X109.080 Y54.836 E6.66161
G1 X109.447 Y54.964 E6.68125
G1 X110.590 Y55.093 E6.73923
G1 X110.590 Y66.034 E7.29089
G1 X109.447 Y66.162 E7.34887
G1 X109.080 Y66.291 E7.36852
G1 X108.750 Y66.498 E7.38816
G1 X108.508 Y66.740 E7.40538
G1 X108.264 Y67.111 E7.42777
G1 X108.138 Y67.471 E7.44702
G1 X108.090 Y67.900 E7.46879
G1 X108.090 Y68.586 E7.50339
G1 X108.138 Y69.015 E7.52516
G1 X108.267 Y69.383 E7.54480
G1 X108.474 Y69.713 E7.56445
G1 X108.750 Y69.988 E7.58409
G1 X109.080 Y70.196 E7.60373
G1 X109.447 Y70.324 E7.62338
G1 X109.876 Y70.373 E7.64515
G1 X133.770 Y70.373 E8.84995
G1 X133.770 Y81.864 E9.42938
G1 X109.876 Y81.864 E10.63419
G1 X109.447 Y81.912 E10.65596
G1 X109.080 Y82.041 E10.67560
G1 X108.750 Y82.248 E10.69525
G1 X108.474 Y82.524 E10.71489
G1 X108.267 Y82.854 E10.73453
G1 X108.138 Y83.221 E10.75418
G1 X108.090 Y83.650 E10.77594
G1 X108.090 Y84.336 E10.81055
G1 X108.138 Y84.765 E10.83231
G1 X108.267 Y85.133 E10.85196
G1 X108.474 Y85.463 E10.87160
G1 X108.750 Y85.738 E10.89124
G1 X109.080 Y85.946 E10.91089
G1 X109.447 Y86.074 E10.93053
G1 X110.590 Y86.203 E10.98852
G1 X110.590 Y97.144 E11.54017
G1 X109.447 Y97.272 E11.59815
G1 X109.080 Y97.401 E11.61780
G1 X108.750 Y97.608 E11.63744
G1 X108.474 Y97.884 E11.65708
G1 X108.267 Y98.214 E11.67673
G1 X108.138 Y98.581 E11.69637
G1 X108.090 Y99.010 E11.71814
G1 X108.090 Y103.254 E11.93212
G1 X61.539 Y103.254 E14.27940
G1 X61.539 Y99.010 E14.49339
G1 X61.490 Y98.581 E14.51515
G1 X61.364 Y98.221 E14.53441
G1 X61.121 Y97.850 E14.55679
G1 X60.879 Y97.608 E14.57401
G1 X60.549 Y97.401 E14.59365
G1 X60.182 Y97.272 E14.61329
G1 X59.039 Y97.143 E14.67129
G1 X59.039 Y86.203 E15.22293
G1 X60.182 Y86.074 E15.28093
G1 X60.549 Y85.946 E15.30057
G1 X60.879 Y85.738 E15.32021
G1 X61.155 Y85.463 E15.33985
G1 X61.362 Y85.133 E15.35949
G1 X61.490 Y84.765 E15.37913
G1 X61.539 Y84.336 E15.40090
G1 X61.539 Y83.650 E15.43550
G1 X61.490 Y83.221 E15.45727
G1 X61.364 Y82.861 E15.47653
G1 X61.120 Y82.490 E15.49892
G1 X60.879 Y82.248 E15.51613
G1 X60.549 Y82.041 E15.53577
G1 X60.181 Y81.912 E15.55542
G1 X59.752 Y81.864 E15.57719
G1 X50.879 Y81.864 E16.02463
G1 X50.879 Y70.373 E16.60406
G1 X59.752 Y70.373 E17.05151
G1 X60.181 Y70.324 E17.07328
G1 X60.549 Y70.196 E17.09292
G1 X60.879 Y69.988 E17.11256
G1 X61.154 Y69.713 E17.13220
G1 X61.362 Y69.383 E17.15185
G1 X61.490 Y69.015 E17.17149
G1 X61.539 Y68.586 E17.19326
G1 X61.539 Y67.900 E17.22786
G1 X61.490 Y67.471 E17.24963
G1 X61.362 Y67.104 E17.26927
G1 X61.154 Y66.774 E17.28892
G1 X60.879 Y66.498 E17.30856
G1 X60.549 Y66.291 E17.32820
G1 X60.181 Y66.162 E17.34785
G1 X59.039 Y66.034 E17.40583
G1 X59.039 Y55.093 E17.95748
G1 X60.182 Y54.964 E18.01548
G1 X60.549 Y54.836 E18.03512
G1 X60.879 Y54.628 E18.05476
G1 X61.121 Y54.387 E18.07198
G1 X61.364 Y54.016 E18.09436
G1 X61.490 Y53.655 E18.11361
G1 X61.539 Y53.226 E18.13538
G1 X61.539 Y49.052 E18.34588
G1 X62.014 Y49.458 F7800.000
G1 F1440
G1 X107.614 Y49.458 E20.64520
G1 X107.614 Y53.253 E20.83655
G1 X107.672 Y53.762 E20.86237
G1 X107.836 Y54.231 E20.88741
G1 X108.100 Y54.651 E20.91246
G1 X108.451 Y55.003 E20.93751
G1 X108.872 Y55.267 E20.96256
G1 X109.341 Y55.431 E20.98760
G1 X110.114 Y55.518 E21.02686
G1 X110.114 Y65.608 E21.53565
G1 X109.341 Y65.696 E21.57490
G1 X108.872 Y65.860 E21.59995
G1 X108.451 Y66.124 E21.62500
G1 X108.137 Y66.438 E21.64737
G1 X107.835 Y66.898 E21.67517
G1 X107.672 Y67.365 E21.70008
G1 X107.614 Y67.873 E21.72589
G1 X107.614 Y68.613 E21.76319
G1 X107.672 Y69.122 E21.78901
G1 X107.836 Y69.591 E21.81405
G1 X108.100 Y70.011 E21.83910
G1 X108.451 Y70.363 E21.86415
G1 X108.872 Y70.627 E21.88920
G1 X109.341 Y70.791 E21.91424
G1 X109.850 Y70.848 E21.94006
G1 X133.294 Y70.848 E23.12223
G1 X133.294 Y81.388 E23.65370
G1 X109.850 Y81.388 E24.83587
G1 X109.341 Y81.446 E24.86169
G1 X108.872 Y81.610 E24.88674
G1 X108.451 Y81.874 E24.91178
G1 X108.100 Y82.225 E24.93683
G1 X107.836 Y82.646 E24.96188
G1 X107.672 Y83.115 E24.98693
G1 X107.614 Y83.623 E25.01274
G1 X107.614 Y84.363 E25.05004
G1 X107.672 Y84.872 E25.07586
G1 X107.836 Y85.341 E25.10090
G1 X108.100 Y85.761 E25.12595
G1 X108.451 Y86.113 E25.15100
G1 X108.872 Y86.377 E25.17605
G1 X109.341 Y86.541 E25.20109
G1 X110.114 Y86.628 E25.24035
G1 X110.114 Y96.718 E25.74914
G1 X109.341 Y96.806 E25.78839
G1 X108.872 Y96.970 E25.81344
G1 X108.451 Y97.234 E25.83849
G1 X108.100 Y97.585 E25.86354
G1 X107.836 Y98.006 E25.88858
G1 X107.672 Y98.475 E25.91363
G1 X107.614 Y98.983 E25.93945
G1 X107.614 Y102.778 E26.13080
G1 X62.014 Y102.778 E28.43011
G1 X62.014 Y98.983 E28.62146
G1 X61.957 Y98.475 E28.64728
G1 X61.794 Y98.009 E28.67218
G1 X61.491 Y97.548 E28.69997
G1 X61.178 Y97.234 E28.72234
G1 X60.757 Y96.970 E28.74739
G1 X60.288 Y96.806 E28.77243
G1 X59.514 Y96.718 E28.81171
G1 X59.514 Y86.628 E29.32049
G1 X60.288 Y86.541 E29.35976
G1 X60.757 Y86.377 E29.38481
G1 X61.178 Y86.112 E29.40985
G1 X61.529 Y85.761 E29.43490
G1 X61.793 Y85.341 E29.45994
G1 X61.957 Y84.872 E29.48499
G1 X62.014 Y84.363 E29.51080
G1 X62.014 Y83.623 E29.54810
G1 X61.957 Y83.115 E29.57391
G1 X61.794 Y82.648 E29.59882
G1 X61.491 Y82.188 E29.62661
G1 X61.177 Y81.874 E29.64899
G1 X60.757 Y81.610 E29.67404
G1 X60.288 Y81.446 E29.69909
G1 X59.779 Y81.388 E29.72490
G1 X51.354 Y81.388 E30.14971
G1 X51.354 Y70.848 E30.68118
G1 X59.779 Y70.848 E31.10599
G1 X60.288 Y70.791 E31.13180
G1 X60.757 Y70.627 E31.15685
G1 X61.177 Y70.363 E31.18190
G1 X61.529 Y70.011 E31.20695
G1 X61.793 Y69.591 E31.23199
G1 X61.957 Y69.122 E31.25704
G1 X62.014 Y68.613 E31.28286
G1 X62.014 Y67.873 E31.32016
G1 X61.957 Y67.365 E31.34597
G1 X61.793 Y66.896 E31.37102
G1 X61.529 Y66.475 E31.39607
G1 X61.177 Y66.124 E31.42111
G1 X60.757 Y65.860 E31.44616
G1 X60.288 Y65.696 E31.47121
G1 X59.514 Y65.608 E31.51046
G1 X59.514 Y55.518 E32.01925
G1 X60.288 Y55.431 E32.05852
G1 X60.757 Y55.267 E32.08357
G1 X61.178 Y55.002 E32.10861
G1 X61.491 Y54.689 E32.13099
G1 X61.794 Y54.228 E32.15878
G1 X61.957 Y53.762 E32.18368
G1 X62.014 Y53.253 E32.20949
G1 X62.014 Y49.527 E32.39736
G1 X62.016 Y48.998 F7800.000
G1 F6240
G1 X72.414 Y49.512 E28.59736
G1 E28.39736 F2400.00000
G92 E0
G1 X62.014 Y45.944 F7800.000
G1 E4.00000 F2400.00000
G1 F1440
G1 X127.292 Y45.944 E7.29152
G1 X129.318 Y46.121 E7.39409
G1 X131.261 Y46.641 E7.49551
G1 X132.550 Y47.202 E7.56637
G1 X133.058 Y47.478 E7.59554
G1 X134.080 Y48.141 E7.65697
G1 X134.704 Y48.629 E7.69689
G1 X135.445 Y49.308 E7.74758
G1 X136.124 Y50.049 E7.79826
G1 X136.611 Y50.673 E7.83818
G1 X137.275 Y51.695 E7.89962
G1 X137.548 Y52.197 E7.92846
G1 X138.245 Y53.880 E8.02030
G1 X138.665 Y55.632 E8.11115
G1 X138.809 Y57.458 E8.20349
G1 X138.809 Y94.776 E10.08520
G1 X138.632 Y96.802 E10.18777
G1 X138.111 Y98.745 E10.28919
G1 X137.551 Y100.034 E10.36005
G1 X137.275 Y100.542 E10.38922
G1 X136.611 Y101.564 E10.45065
G1 X136.124 Y102.188 E10.49058
G1 X135.445 Y102.929 E10.54126
G1 X134.704 Y103.608 E10.59194
G1 X134.080 Y104.095 E10.63186
G1 X133.058 Y104.759 E10.69330
G1 X132.555 Y105.032 E10.72214
G1 X130.873 Y105.729 E10.81398
G1 X129.121 Y106.149 E10.90483
G1 X127.295 Y106.293 E10.99717
G1 X57.357 Y106.293 E14.52370
G1 X55.331 Y106.116 E14.62627
G1 X53.388 Y105.595 E14.72768
G1 X52.099 Y105.035 E14.79855
G1 X51.591 Y104.759 E14.82771
G1 X50.569 Y104.095 E14.88915
G1 X49.945 Y103.608 E14.92907
G1 X49.204 Y102.929 E14.97975
G1 X48.525 Y102.188 E15.03044
G1 X48.037 Y101.564 E15.07036
G1 X47.374 Y100.542 E15.13180
G1 X47.101 Y100.039 E15.16063
G1 X46.404 Y98.357 E15.25248
G1 X45.983 Y96.605 E15.34333
G1 X45.840 Y94.779 E15.43567
G1 X45.840 Y57.461 E17.31738
G1 X46.017 Y55.435 E17.41995
G1 X46.537 Y53.492 E17.52136
G1 X47.098 Y52.203 E17.59223
G1 X47.374 Y51.695 E17.62139
G1 X48.037 Y50.673 E17.68283
G1 X48.525 Y50.049 E17.72275
G1 X49.204 Y49.308 E17.77343
G1 X49.945 Y48.629 E17.82412
G1 X50.569 Y48.141 E17.86404
G1 X51.591 Y47.478 E17.92548
G1 X52.093 Y47.205 E17.95431
G1 X53.776 Y46.508 E18.04616
G1 X55.528 Y46.087 E18.13701
G1 X57.354 Y45.944 E18.22935
G1 X61.945 Y45.944 E18.46088
G1 X62.014 Y45.468 F7800.000
G1 F1440
G1 X127.313 Y45.468 E21.75345
G1 X129.401 Y45.651 E21.85916
G1 X131.418 Y46.191 E21.96446
G1 X132.758 Y46.774 E22.03815
G1 X133.301 Y47.069 E22.06930
G1 X134.356 Y47.754 E22.13273
G1 X135.011 Y48.266 E22.17464
G1 X135.781 Y48.971 E22.22731
G1 X136.487 Y49.741 E22.27998
G1 X136.999 Y50.396 E22.32190
G1 X137.684 Y51.451 E22.38532
G1 X137.978 Y51.992 E22.41636
G1 X138.699 Y53.733 E22.51135
G1 X139.137 Y55.557 E22.60598
G1 X139.285 Y57.439 E22.70114
G1 X139.285 Y94.797 E24.58485
G1 X139.102 Y96.885 E24.69056
G1 X138.562 Y98.902 E24.79585
G1 X137.979 Y100.242 E24.86954
G1 X137.684 Y100.785 E24.90070
G1 X136.999 Y101.840 E24.96412
G1 X136.487 Y102.495 E25.00604
G1 X135.781 Y103.265 E25.05871
G1 X135.011 Y103.971 E25.11138
G1 X134.356 Y104.483 E25.15330
G1 X133.301 Y105.168 E25.21672
G1 X132.760 Y105.462 E25.24776
G1 X131.020 Y106.183 E25.34274
G1 X129.195 Y106.621 E25.43737
G1 X127.314 Y106.769 E25.53254
G1 X57.336 Y106.769 E29.06106
G1 X55.248 Y106.586 E29.16677
G1 X53.231 Y106.046 E29.27207
G1 X51.890 Y105.463 E29.34576
G1 X51.347 Y105.168 E29.37692
G1 X50.292 Y104.483 E29.44034
G1 X49.637 Y103.971 E29.48226
G1 X48.867 Y103.265 E29.53493
G1 X48.162 Y102.495 E29.58760
G1 X47.650 Y101.840 E29.62951
G1 X46.965 Y100.785 E29.69294
G1 X46.671 Y100.244 E29.72397
G1 X45.950 Y98.504 E29.81896
G1 X45.512 Y96.679 E29.91359
G1 X45.364 Y94.798 E30.00875
G1 X45.364 Y57.440 E31.89246
G1 X45.547 Y55.352 E31.99817
G1 X46.087 Y53.335 E32.10347
G1 X46.670 Y51.994 E32.17716
G1 X46.965 Y51.451 E32.20832
G1 X47.650 Y50.396 E32.27174
G1 X48.162 Y49.741 E32.31365
G1 X48.867 Y48.971 E32.36633
G1 X49.637 Y48.266 E32.41900
G1 X50.292 Y47.754 E32.46091
G1 X51.347 Y47.069 E32.52433
G1 X51.888 Y46.775 E32.55537
G1 X53.629 Y46.054 E32.65036
G1 X55.453 Y45.616 E32.74499
G1 X57.335 Y45.468 E32.84015
G1 X61.945 Y45.468 E33.07263
G1 X62.247 Y45.865 F7800.000
G1 F6240
G1 X72.345 Y45.468 E29.27263
G1 E29.07263 F2400.00000
G92 E0
G1 X61.114 Y48.883 F7800.000
G1 E4.00000 F2400.00000
G1 F1433.49
G1 X61.114 Y49.558 E4.03423
G1 X46.265 Y64.407 E5.09790
G1 X46.265 Y65.083 E5.13213
G1 X61.114 Y50.234 E6.19581
G1 X61.114 Y50.910 E6.23003
G1 X46.265 Y65.758 E7.29371
G1 X46.265 Y66.434 E7.32794
G1 X61.114 Y51.585 E8.39162
G1 X61.114 Y52.261 E8.42584
G1 X58.674 Y54.701 E8.60060
G1 X59.436 Y54.615 E8.63943
G1 X61.114 Y52.937 E8.75963
G1 X61.114 Y53.149 E8.77040
G1 X61.074 Y53.498 E8.78819
G1 X60.992 Y53.734 E8.80084
G1 X60.260 Y54.466 E8.85325
G1 X58.614 Y54.761 F7800.000
G1 F1433.49
G1 X46.265 Y67.110 E9.73784
G1 X46.265 Y67.786 E9.77207
G1 X58.614 Y55.437 E10.65666
G1 X58.614 Y56.112 E10.69089
G1 X46.265 Y68.461 E11.57548
G1 X46.265 Y69.137 E11.60971
G1 X58.614 Y56.788 E12.49430
G1 X58.614 Y57.464 E12.52853
G1 X46.265 Y69.813 E13.41312
